outputs/icons/editor/font_size_increase_sharp.svg

<svg xmlns="http://www.w3.org/2000/svg" width="1200" height="1200" fill="none"><g clip-path="url(#a)"><path fill="#000" d="M49.5 950h121L234 771h282.5l63 179h121l-263-700h-125zm220.999-280.5L372 380h6l101.5 289.5zM1000 550h150v100h-150v150H900V650H750V550h150V400h100z"/></g><defs><clipPath id="a"><path fill="#fff" d="M0 0h1200v1200H0z"/></clipPath></defs></svg>

<svg width="1200" height="1200" viewBox="0 0 1200 1200" fill="none" xmlns="http://www.w3.org/2000/svg"><g clip-path="url(#clip0_125_1471)"><path d="M49.5 950H170.5L234 771H516.5L579.5 950H700.5L437.5 250H312.5L49.5 950ZM270.499 669.5L372 380H378L479.5 669.5H270.499ZM1000 550H1150V650H1000V800H900V650H750V550H900V400H1000V550Z" fill="black"/></g><defs><clipPath id="clip0_125_1471"><path width="24" fill="white" d="M0 0H1200V1200H0V0z"/></clipPath></defs></svg>
